assets/images/header bg words.svg

<?xml version="1.0" encoding="UTF-8"?>
<svg width="1330px" height="281px" viewBox="0 0 1330 281" version="1.1" xmlns="http://www.w3.org/2000/svg" xmlns:xlink="http://www.w3.org/1999/xlink">
    <!-- Generator: Sketch 55.2 (78181) - https://sketchapp.com -->
    <title>header bg words</title>
    <desc>Created with Sketch.</desc>
    <g id="Home" stroke="none" stroke-width="1" fill="none" fill-rule="evenodd" opacity="0.6">
        <g id="Desktop-hd" transform="translate(-110.000000, 0.000000)" fill="#FFFFFF" fill-rule="nonzero">
            <g id="header-bg-words" transform="translate(110.800000, -46.400000)">
                <path d="M217.2,325.4 L183.8,175.4 L211.4,175.4 L229.6,268.8 L248,175.4 L273.4,175.4 L292,268.8 L310.2,175.4 L337.8,175.4 L304.6,325.4 L280.8,325.4 L260.8,234.8 L240.8,325.4 L217.2,325.4 Z M354,325.4 L354,175.4 L421.8,175.4 L421.8,199.8 L381.4,199.8 L381.4,237.6 L421.8,237.6 L421.8,262 L381.4,262 L381.4,301 L421.8,301 L421.8,325.4 L354,325.4 Z M445,325.4 L445,175.4 L485.8,175.4 C512.4,175.4 531.4,190 531.4,212.4 L531.4,225 C531.4,234 527.8,240.8 521.2,247 C532.2,253.4 536.6,263.4 536.6,274 L536.6,288.4 C536.6,310.8 517.6,325.4 491,325.4 L445,325.4 Z M472.4,237.2 L485.8,237.2 C498.2,237.2 504,230 504,221.8 L504,215.2 C504,205.8 497,199.8 485.8,199.8 L472.4,199.8 L472.4,237.2 Z M472.4,300.6 L491,300.6 C502.2,300.6 509.2,294.2 509.2,284.4 L509.2,277.8 C509.2,268 502.2,261.6 491,261.6 L472.4,261.6 L472.4,300.6 Z M594.2,175.4 L639.6,175.4 C666.2,175.4 685.2,190.8 685.2,217.2 L685.2,283.6 C685.2,310 666.2,325.4 639.6,325.4 L594.2,325.4 L594.2,175.4 Z M621.6,300.2 L639.6,300.2 C650.8,300.2 657.8,293 657.8,279.2 L657.8,221.6 C657.8,207.8 650.8,200.4 639.6,200.4 L621.6,200.4 L621.6,300.2 Z M707.8,325.4 L707.8,175.4 L775.6,175.4 L775.6,199.8 L735.2,199.8 L735.2,237.6 L775.6,237.6 L775.6,262 L735.2,262 L735.2,301 L775.6,301 L775.6,325.4 L707.8,325.4 Z M796,289.8 L796,279.2 L823.4,279.2 L823.4,285.8 C823.4,294.8 830,301.6 841.2,301.6 C852,301.6 859,295.2 859,286.8 L859,283.8 C859,274 847.2,269.2 831.6,260 C815.4,250.4 796,240.6 796,218.6 L796,211 C796,189 814.6,174 841.2,174 C867.6,174 886.2,189 886.2,211 L886.2,221.6 L859,221.6 L859,215.4 C859,206 852,199.2 841.2,199.2 C830.2,199.2 823.4,205.6 823.4,213.8 L823.4,217 C823.4,226.8 833.6,230.8 850.4,240.6 C866,249.8 886.2,260.2 886.2,282.2 L886.2,289.8 C886.2,311.8 867.6,326.8 841.2,326.8 C814.6,326.8 796,311.8 796,289.8 Z M908.6,325.4 L908.6,175.4 L936,175.4 L936,325.4 L908.6,325.4 Z M958.6,285.4 L958.6,215.4 C958.6,189.4 977.6,174 1004.2,174 C1030.8,174 1049.6,188.6 1049.6,214 L1049.6,226.6 L1022.4,226.6 L1022.4,218.2 C1022.4,205.6 1015.2,199.2 1004.2,199.2 C993.2,199.2 986.2,206.4 986.2,219.8 L986.2,281 C986.2,294.4 993.2,301.6 1004.2,301.6 C1015.2,301.6 1022.4,296 1022.4,282.6 L1022.4,270 L1004.2,270 L1004.2,244.8 L1049.6,244.8 L1049.6,286.8 C1049.6,312.8 1030.8,326.8 1004.2,326.8 C977.6,326.8 958.6,311.4 958.6,285.4 Z M1067.2,325.4 L1067.2,175.4 L1092,175.4 L1137.6,265.4 L1137.6,175.4 L1164.2,175.4 L1164.2,325.4 L1139.4,325.4 L1093.8,235 L1093.8,325.4 L1067.2,325.4 Z M1189.4,325.4 L1189.4,175.4 L1257.2,175.4 L1257.2,199.8 L1216.8,199.8 L1216.8,237.6 L1257.2,237.6 L1257.2,262 L1216.8,262 L1216.8,301 L1257.2,301 L1257.2,325.4 L1189.4,325.4 Z M1280.6,325.4 L1280.6,175.4 L1326.2,175.4 C1352.8,175.4 1371.8,192 1371.8,214.4 L1371.8,229.4 C1371.8,243.4 1365.4,252.4 1353.4,261.2 L1370.6,325.4 L1343.8,325.4 L1328.6,268.4 L1308,268.4 L1308,325.4 L1280.6,325.4 Z M1308,243.2 L1326.2,243.2 C1337.2,243.2 1344.2,234.8 1344.2,225 L1344.2,218.8 C1344.2,209 1337.2,200.4 1326.2,200.4 L1308,200.4 L1308,243.2 Z" id="WEBDESIGNER"></path>
                <path d="M0,1.4 L45.4,1.4 C72,1.4 91,16.8 91,43.2 L91,109.6 C91,136 72,151.4 45.4,151.4 L0,151.4 L0,1.4 Z M27.4,126.2 L45.4,126.2 C56.6,126.2 63.6,119 63.6,105.2 L63.6,47.6 C63.6,33.8 56.6,26.4 45.4,26.4 L27.4,26.4 L27.4,126.2 Z M113.6,151.4 L113.6,1.4 L181.4,1.4 L181.4,25.8 L141,25.8 L141,63.6 L181.4,63.6 L181.4,88 L141,88 L141,127 L181.4,127 L181.4,151.4 L113.6,151.4 Z M234.4,151.4 L195.6,1.4 L223.4,1.4 L247.6,108 L272.2,1.4 L300,1.4 L261,151.4 L234.4,151.4 Z M316,151.4 L316,1.4 L383.8,1.4 L383.8,25.8 L343.4,25.8 L343.4,63.6 L383.8,63.6 L383.8,88 L343.4,88 L343.4,127 L383.8,127 L383.8,151.4 L316,151.4 Z M407,151.4 L407,1.4 L434.4,1.4 L434.4,126.2 L474.8,126.2 L474.8,151.4 L407,151.4 Z M494.2,111 L494.2,41.8 C494.2,15.4 513.2,8.52651283e-14 539.8,8.52651283e-14 C566.4,8.52651283e-14 585.6,15.4 585.6,41.8 L585.6,111 C585.6,137.4 566.4,152.8 539.8,152.8 C513.2,152.8 494.2,137.4 494.2,111 Z M521.8,106.6 C521.8,120.4 528.8,127.6 539.8,127.6 C551,127.6 558,120.4 558,106.6 L558,46.2 C558,32.4 551,25.2 539.8,25.2 C528.8,25.2 521.8,32.4 521.8,46.2 L521.8,106.6 Z M608.2,151.4 L608.2,1.4 L653.8,1.4 C680.4,1.4 699.4,18.4 699.4,42.8 L699.4,61 C699.4,85.4 680.4,102.4 653.8,102.4 L635.6,102.4 L635.6,151.4 L608.2,151.4 Z M635.6,77.2 L653.8,77.2 C665,77.2 672,68.4 672,56.6 L672,47.2 C672,35.4 665,26.4 653.8,26.4 L635.6,26.4 L635.6,77.2 Z M717.2,151.4 L717.2,1.4 L785,1.4 L785,25.8 L744.6,25.8 L744.6,63.6 L785,63.6 L785,88 L744.6,88 L744.6,127 L785,127 L785,151.4 L717.2,151.4 Z M808.4,151.4 L808.4,1.4 L854,1.4 C880.6,1.4 899.6,18 899.6,40.4 L899.6,55.4 C899.6,69.4 893.2,78.4 881.2,87.2 L898.4,151.4 L871.6,151.4 L856.4,94.4 L835.8,94.4 L835.8,151.4 L808.4,151.4 Z M835.8,69.2 L854,69.2 C865,69.2 872,60.8 872,51 L872,44.8 C872,35 865,26.4 854,26.4 L835.8,26.4 L835.8,69.2 Z" id="DEVELOPER"></path>
                <path d="M165.646,275.579 L164.68,278.799 C159.85,283.468 152.766,287.332 143.267,287.332 C132.48,287.332 127.006,284.112 121.371,277.511 L119.439,275.257 C110.262,282.502 99.475,287.332 84.985,287.332 C73.071,287.332 61.64,279.926 61.64,264.631 C61.64,248.531 73.554,238.871 85.468,235.168 L83.858,233.236 C77.901,225.186 72.266,217.941 72.266,205.705 C72.266,185.741 87.239,171.895 108.974,171.895 C121.049,171.895 131.192,177.852 131.192,188.8 C131.192,196.045 125.074,199.587 119.117,199.587 L117.99,198.621 L113.482,178.335 L112.355,177.53 C94.001,177.53 85.79,187.673 85.79,199.587 C85.79,208.764 89.01,214.721 94.806,221.322 L128.616,260.767 C134.734,250.946 137.954,235.49 137.954,223.898 L124.43,220.678 L124.43,215.687 L163.553,215.687 L163.553,220.678 L148.258,223.898 C146.326,233.719 141.979,250.624 131.192,263.665 L136.666,269.944 C140.691,274.452 145.843,276.867 151.317,276.867 C157.435,276.867 161.621,275.257 164.68,274.13 L165.646,275.579 Z M116.219,271.393 L88.044,238.388 C79.189,242.735 75.003,249.658 75.003,258.03 C75.003,271.876 87.4,276.062 97.704,276.062 C104.466,276.062 111.067,273.969 116.219,271.393 Z" id="&amp;"></path>
            </g>
        </g>
    </g>
</svg>

<?xml version="1.0" encoding="utf-8"?>
<!-- Generator: Adobe Illustrator 23.0.4, SVG Export Plug-In . SVG Version: 6.00 Build 0)  -->
<svg version="1.1" id="Layer_1" xmlns="http://www.w3.org/2000/svg" xmlns:xlink="http://www.w3.org/1999/xlink" x="0px" y="0px"
	 viewBox="0 0 1330 281" style="enable-background:new 0 0 1330 281;" xml:space="preserve">
<style type="text/css">
	.st0{fill:#FFFFFF;}
</style>
<title>header bg words</title>
<desc>Created with Sketch.</desc>
<g id="Home">
	<g id="Desktop-hd" transform="translate(-110.000000, 0.000000)">
		<g id="header-bg-words" transform="translate(110.800000, -46.400000)">
			<path id="WEBDESIGNER" class="st0" d="M217.2,325.4l-33.4-150h27.6l18.2,93.4l18.4-93.4h25.4l18.6,93.4l18.2-93.4h27.6l-33.2,150
				h-23.8l-20-90.6l-20,90.6H217.2z M354,325.4v-150h67.8v24.4h-40.4v37.8h40.4V262h-40.4v39h40.4v24.4H354z M445,325.4v-150h40.8
				c26.6,0,45.6,14.6,45.6,37V225c0,9-3.6,15.8-10.2,22c11,6.4,15.4,16.4,15.4,27v14.4c0,22.4-19,37-45.6,37H445z M472.4,237.2h13.4
				c12.4,0,18.2-7.2,18.2-15.4v-6.6c0-9.4-7-15.4-18.2-15.4h-13.4V237.2z M472.4,300.6H491c11.2,0,18.2-6.4,18.2-16.2v-6.6
				c0-9.8-7-16.2-18.2-16.2h-18.6V300.6z M594.2,175.4h45.4c26.6,0,45.6,15.4,45.6,41.8v66.4c0,26.4-19,41.8-45.6,41.8h-45.4V175.4z
				 M621.6,300.2h18c11.2,0,18.2-7.2,18.2-21v-57.6c0-13.8-7-21.2-18.2-21.2h-18V300.2z M707.8,325.4v-150h67.8v24.4h-40.4v37.8
				h40.4V262h-40.4v39h40.4v24.4H707.8z M796,289.8v-10.6h27.4v6.6c0,9,6.6,15.8,17.8,15.8c10.8,0,17.8-6.4,17.8-14.8v-3
				c0-9.8-11.8-14.6-27.4-23.8c-16.2-9.6-35.6-19.4-35.6-41.4V211c0-22,18.6-37,45.2-37c26.4,0,45,15,45,37v10.6H859v-6.2
				c0-9.4-7-16.2-17.8-16.2c-11,0-17.8,6.4-17.8,14.6v3.2c0,9.8,10.2,13.8,27,23.6c15.6,9.2,35.8,19.6,35.8,41.6v7.6
				c0,22-18.6,37-45,37C814.6,326.8,796,311.8,796,289.8z M908.6,325.4v-150H936v150H908.6z M958.6,285.4v-70
				c0-26,19-41.4,45.6-41.4s45.4,14.6,45.4,40v12.6h-27.2v-8.4c0-12.6-7.2-19-18.2-19s-18,7.2-18,20.6V281c0,13.4,7,20.6,18,20.6
				s18.2-5.6,18.2-19V270h-18.2v-25.2h45.4v42c0,26-18.8,40-45.4,40S958.6,311.4,958.6,285.4z M1067.2,325.4v-150h24.8l45.6,90v-90
				h26.6v150h-24.8l-45.6-90.4v90.4H1067.2z M1189.4,325.4v-150h67.8v24.4h-40.4v37.8h40.4V262h-40.4v39h40.4v24.4H1189.4z
				 M1280.6,325.4v-150h45.6c26.6,0,45.6,16.6,45.6,39v15c0,14-6.4,23-18.4,31.8l17.2,64.2h-26.8l-15.2-57H1308v57H1280.6z
				 M1308,243.2h18.2c11,0,18-8.4,18-18.2v-6.2c0-9.8-7-18.4-18-18.4H1308V243.2z"/>
			<path id="DEVELOPER" class="st0" d="M0,1.4h45.4C72,1.4,91,16.8,91,43.2v66.4c0,26.4-19,41.8-45.6,41.8H0V1.4z M27.4,126.2h18
				c11.2,0,18.2-7.2,18.2-21V47.6c0-13.8-7-21.2-18.2-21.2h-18V126.2z M113.6,151.4V1.4h67.8v24.4H141v37.8h40.4V88H141v39h40.4
				v24.4H113.6z M234.4,151.4l-38.8-150h27.8L247.6,108L272.2,1.4H300l-39,150H234.4z M316,151.4V1.4h67.8v24.4h-40.4v37.8h40.4V88
				h-40.4v39h40.4v24.4H316z M407,151.4V1.4h27.4v124.8h40.4v25.2H407z M494.2,111V41.8c0-26.4,19-41.8,45.6-41.8
				c26.6,0,45.8,15.4,45.8,41.8V111c0,26.4-19.2,41.8-45.8,41.8C513.2,152.8,494.2,137.4,494.2,111z M521.8,106.6c0,13.8,7,21,18,21
				c11.2,0,18.2-7.2,18.2-21V46.2c0-13.8-7-21-18.2-21c-11,0-18,7.2-18,21V106.6z M608.2,151.4V1.4h45.6c26.6,0,45.6,17,45.6,41.4
				V61c0,24.4-19,41.4-45.6,41.4h-18.2v49H608.2z M635.6,77.2h18.2c11.2,0,18.2-8.8,18.2-20.6v-9.4c0-11.8-7-20.8-18.2-20.8h-18.2
				V77.2z M717.2,151.4V1.4H785v24.4h-40.4v37.8H785V88h-40.4v39H785v24.4H717.2z M808.4,151.4V1.4H854c26.6,0,45.6,16.6,45.6,39v15
				c0,14-6.4,23-18.4,31.8l17.2,64.2h-26.8l-15.2-57h-20.6v57H808.4z M835.8,69.2H854c11,0,18-8.4,18-18.2v-6.2
				c0-9.8-7-18.4-18-18.4h-18.2V69.2z"/>
			<path class="st0" d="M165.6,275.6l-1,3.2c-4.8,4.7-11.9,8.5-21.4,8.5c-10.8,0-16.3-3.2-21.9-9.8l-1.9-2.3
				c-9.2,7.2-20,12.1-34.5,12.1c-11.9,0-23.3-7.4-23.3-22.7c0-16.1,11.9-25.8,23.8-29.5l-1.6-1.9c-6-8-11.6-15.3-11.6-27.5
				c0-20,15-33.8,36.7-33.8c12.1,0,22.2,6,22.2,16.9c0,7.2-6.1,10.8-12.1,10.8l-1.1-1l-4.5-20.3l-1.1-0.8
				c-18.4,0-26.6,10.1-26.6,22.1c0,9.2,3.2,15.1,9,21.7l33.8,39.4c6.1-9.8,9.3-25.3,9.3-36.9l-13.5-3.2v-5h39.1v5l-15.3,3.2
				c-1.9,9.8-6.3,26.7-17.1,39.8l5.5,6.3c4,4.5,9.2,6.9,14.7,6.9c6.1,0,10.3-1.6,13.4-2.7L165.6,275.6z M116.2,271.4l-28.2-33
				c-8.9,4.3-13,11.3-13,19.6c0,13.8,12.4,18,22.7,18C104.5,276.1,111.1,274,116.2,271.4z"/>
		</g>
	</g>
</g>
</svg>
